;FLAVOR:Marlin
;TIME:3004
;Filament used: 5.25428m
;Layer height: 0.3
;MINX:79.825
;MINY:51.844
;MINZ:0.36
;MAXX:169.441
;MAXY:141.453
;MAXZ:3.66
;Generated with Cura_SteamEngine 4.12.0
M140 S60
M105
M190 S60
M104 S200
M105
M109 S200
M82 ;absolute extrusion mode
G21 ;metric values
G90 ;absolute positioning
M82 ;set extruder to absolute mode
M107 ;start with the fan off
G28 X0 Y0 ;move X/Y to min endstops
M300 S1318 P266
G28 Z0 ;move Z to min endstops
G0 Z0.2
G92 E0 ;zero the extruded length
G1 X40 E25 F400 ; Extrude 25mm of filament in a 4cm line. Reduce speed (F) if you have a nozzle smaller than 0.4mm!
G92 E0 ;zero the extruded length again
G1 E-1 F500 ; Retract a little
G1 X80 F4000 ; Quickly wipe away from the filament line
M117 ; Printing…
G5
G92 E0
G92 E0
G1 F1500 E-6.5
;LAYER_COUNT:7
;LAYER:-6
M107
G0 F7200 X89.477 Y69.191 Z0.36
;TYPE:SUPPORT-INTERFACE
G1 F1500 E0
G1 F1350 X89.992 Y68.545 E0.09892
G1 X90.067 Y68.454 E0.11304
G1 X91.143 Y67.185 E0.31226
G1 X91.233 Y67.082 E0.32863
G1 X91.732 Y66.527 E0.418
G1 X91.829 Y66.422 E0.43511
G1 X92.968 Y65.231 E0.63244
G1 X93.589 Y64.617 E0.737
G1 X93.689 Y64.521 E0.7536
G1 X94.961 Y63.342 E0.96127
G1 X95.633 Y62.756 E1.06802
G1 X96.994 Y61.637 E1.27899
G1 X97.689 Y61.099 E1.38423
G1 X99.132 Y60.05 E1.59784
G1 X99.898 Y59.529 E1.70876
G1 X101.405 Y58.567 E1.92284
G1 X102.177 Y58.107 E2.03044
G1 X103.692 Y57.263 E2.23809
G1 X104.472 Y56.858 E2.34332
G1 X106.055 Y56.095 E2.55374
G1 X106.89 Y55.723 E2.66319
G1 X108.588 Y55.028 E2.88287
G1 X109.422 Y54.716 E2.98949
G1 X111.073 Y54.153 E3.19835
G1 X111.912 Y53.895 E3.30346
G1 X113.622 Y53.423 E3.51586
G1 X114.496 Y53.208 E3.62363
G1 X116.275 Y52.832 E3.84135
G1 X117.138 Y52.677 E3.94633
G1 X118.799 Y52.427 E4.14746
G1 X118.927 Y52.409 E4.16293
G1 X119.777 Y52.308 E4.26543
G1 X121.491 Y52.154 E4.47148
G1 X122.399 Y52.099 E4.5804
G1 X124.256 Y52.045 E4.80285
G1 X125.01 Y52.045 E4.89313
G1 X126.867 Y52.099 E5.11557
G1 X127.792 Y52.156 E5.22654
G1 X129.546 Y52.314 E5.43741
G1 X130.429 Y52.42 E5.54389
G1 X132.129 Y52.678 E5.74978
G1 X132.207 Y52.69 E5.75922
G1 X133.068 Y52.847 E5.86402
G1 X134.797 Y53.215 E6.07568
G1 X135.669 Y53.429 E6.18319
G1 X137.414 Y53.913 E6.40002
G1 X138.241 Y54.168 E6.50364
G1 X139.831 Y54.713 E6.70489
G1 X139.971 Y54.762 E6.72265
G1 X140.777 Y55.067 E6.82584
G1 X142.404 Y55.735 E7.03643
G1 X143.12 Y56.054 E7.13029
G1 X143.253 Y56.116 E7.14786
G1 X144.814 Y56.869 E7.35537
G1 X145.594 Y57.275 E7.46066
G1 X147.159 Y58.147 E7.67518
G1 X147.925 Y58.606 E7.7821
G1 X149.417 Y59.561 E7.99421
G1 X150.125 Y60.043 E8.09676
G1 X151.578 Y61.099 E8.31183
G1 X152.264 Y61.63 E8.41571
G1 X153.675 Y62.791 E8.63449
G1 X154.272 Y63.313 E8.72945
G1 X154.387 Y63.416 E8.74793
G1 X155.646 Y64.586 E8.95373
G1 X156.299 Y65.233 E9.06379
G1 X157.433 Y66.418 E9.26018
G1 X157.53 Y66.523 E9.2773
G1 X158.029 Y67.077 E9.36657
G1 X158.123 Y67.185 E9.38372
G1 X159.195 Y68.449 E9.58217
G1 X159.27 Y68.54 E9.59629
G1 X159.835 Y69.253 E9.70521
G1 X160.821 Y70.567 E9.90192
G1 X161.332 Y71.291 E10.00802
G1 X161.395 Y71.382 E10.02127
G1 X162.352 Y72.833 E10.2294
G1 X162.81 Y73.573 E10.3336
G1 X163.672 Y75.066 E10.54002
G1 X163.719 Y75.148 E10.55134
G1 X164.122 Y75.9 E10.6535
G1 X164.925 Y77.506 E10.86849
G1 X165.306 Y78.331 E10.9773
G1 X166.012 Y79.984 E11.19252
G1 X166.32 Y80.771 E11.29371
G1 X166.923 Y82.449 E11.50721
G1 X167.195 Y83.288 E11.61282
G1 X167.676 Y84.937 E11.81849
G1 X167.708 Y85.049 E11.83244
G1 X167.928 Y85.907 E11.93849
G1 X168.299 Y87.531 E12.13796
G1 X168.331 Y87.68 E12.1562
G1 X168.468 Y88.378 E12.24137
G1 X168.505 Y88.583 E12.26632
G1 X168.783 Y90.264 E12.47033
G1 X168.896 Y91.095 E12.57074
G1 X169.087 Y92.921 E12.79058
G1 X169.154 Y93.842 E12.90114
G1 X169.23 Y95.601 E13.11196
G1 X169.241 Y96.355 E13.20225
G1 X169.241 Y96.497 E13.21925
G1 X169.216 Y98.151 E13.41732
G1 X169.179 Y99.043 E13.52421
G1 X169.043 Y100.867 E13.74322
G1 X168.949 Y101.76 E13.85073
G1 X168.718 Y103.468 E14.05711
G1 X168.582 Y104.293 E14.15722
G1 X168.554 Y104.457 E14.17714
G1 X168.222 Y106.14 E14.38254
G1 X168.036 Y106.958 E14.48299
G1 X167.594 Y108.663 E14.69389
G1 X167.563 Y108.777 E14.70803
G1 X167.349 Y109.512 E14.79969
G1 X167.313 Y109.629 E14.81435
G1 X166.777 Y111.278 E15.02196
G1 X166.473 Y112.126 E15.12983
G1 X165.841 Y113.736 E15.33693
G1 X165.506 Y114.524 E15.43945
G1 X164.747 Y116.167 E15.65615
G1 X164.333 Y116.998 E15.76732
G1 X163.469 Y118.602 E15.98547
G1 X163.044 Y119.337 E16.08713
G1 X162.15 Y120.786 E16.29099
G1 X161.656 Y121.538 E16.39872
G1 X161.599 Y121.622 E16.41088
G1 X160.638 Y122.988 E16.61086
G1 X160.09 Y123.722 E16.72054
G1 X160.043 Y123.784 E16.72985
G1 X158.963 Y125.139 E16.93733
G1 X158.379 Y125.828 E17.04547
G1 X157.198 Y127.14 E17.25684
G1 X156.573 Y127.795 E17.36524
G1 X155.277 Y129.07 E17.58292
G1 X154.653 Y129.65 E17.68493
G1 X153.31 Y130.823 E17.89844
G1 X152.623 Y131.388 E18.00494
G1 X151.261 Y132.441 E18.21108
G1 X151.183 Y132.5 E18.22279
G1 X150.467 Y133.019 E18.32867
G1 X149.079 Y133.966 E18.52987
G1 X148.326 Y134.449 E18.63698
G1 X148.223 Y134.513 E18.6515
G1 X146.797 Y135.365 E18.8504
G1 X146.712 Y135.415 E18.86221
G1 X145.995 Y135.815 E18.96051
G1 X144.365 Y136.661 E19.18041
G1 X143.649 Y137.006 E19.27557
G1 X141.941 Y137.767 E19.49946
G1 X141.146 Y138.092 E19.6023
G1 X139.417 Y138.74 E19.82339
G1 X138.616 Y139.013 E19.92471
G1 X136.998 Y139.513 E20.12749
G1 X136.838 Y139.559 E20.14742
G1 X136.028 Y139.781 E20.24798
G1 X134.303 Y140.201 E20.46056
G1 X133.437 Y140.383 E20.56652
G1 X131.703 Y140.697 E20.77752
G1 X130.786 Y140.834 E20.88854
G1 X129.049 Y141.043 E21.09802
G1 X128.199 Y141.119 E21.2002
G1 X126.476 Y141.223 E21.40688
G1 X125.573 Y141.251 E21.51506
G1 X125.457 Y141.253 E21.52895
G1 X123.809 Y141.253 E21.72627
G1 X122.897 Y141.227 E21.83552
G1 X122.79 Y141.223 E21.84834
G1 X121.068 Y141.119 E22.0549
G1 X120.218 Y141.043 E22.15708
G1 X118.374 Y140.82 E22.37948
G1 X117.51 Y140.688 E22.48414
G1 X115.759 Y140.369 E22.69725
G1 X114.932 Y140.194 E22.79846
G1 X113.171 Y139.764 E23.01551
G1 X112.308 Y139.525 E23.12273
G1 X110.605 Y138.999 E23.33615
G1 X109.849 Y138.74 E23.43184
G1 X108.18 Y138.115 E23.64523
G1 X108.072 Y138.073 E23.6591
G1 X107.353 Y137.779 E23.75211
G1 X105.734 Y137.06 E23.96422
G1 X104.909 Y136.665 E24.07374
G1 X103.328 Y135.845 E24.287
G1 X102.52 Y135.396 E24.39768
G1 X101.022 Y134.501 E24.60662
G1 X100.291 Y134.034 E24.71048
G1 X100.187 Y133.967 E24.72529
G1 X98.821 Y133.035 E24.9233
G1 X98.647 Y132.911 E24.94888
G1 X98.104 Y132.515 E25.02935
G1 X97.985 Y132.426 E25.04714
G1 X96.643 Y131.387 E25.25036
G1 X95.96 Y130.826 E25.35619
G1 X94.628 Y129.663 E25.56792
G1 X94.015 Y129.095 E25.66798
G1 X93.915 Y128.999 E25.68458
G1 X92.695 Y127.796 E25.88973
G1 X92.105 Y127.179 E25.99195
G1 X90.922 Y125.865 E26.20365
G1 X90.842 Y125.774 E26.21816
G1 X90.3 Y125.133 E26.31867
G1 X89.205 Y123.76 E26.52895
G1 X88.634 Y122.996 E26.64315
G1 X87.671 Y121.628 E26.84347
G1 X87.157 Y120.851 E26.95502
G1 X86.219 Y119.332 E27.16878
G1 X85.762 Y118.539 E27.27837
G1 X84.912 Y116.956 E27.49351
G1 X84.519 Y116.167 E27.59905
G1 X83.76 Y114.524 E27.81576
G1 X83.424 Y113.736 E27.91833
G1 X82.785 Y112.104 E28.12818
G1 X82.477 Y111.243 E28.23767
G1 X81.953 Y109.629 E28.44086
G1 X81.917 Y109.512 E28.45551
G1 X81.684 Y108.71 E28.55551
G1 X81.243 Y107.009 E28.76592
G1 X81.039 Y106.113 E28.87595
G1 X80.714 Y104.457 E29.07801
G1 X80.564 Y103.567 E29.18608
G1 X80.549 Y103.468 E29.19807
G1 X80.31 Y101.698 E29.41193
G1 X80.221 Y100.841 E29.5151
G1 X80.087 Y99.043 E29.73098
G1 X80.05 Y98.141 E29.83907
G1 X80.026 Y96.492 E30.03654
G1 X80.026 Y96.353 E30.05318
G1 X80.037 Y95.607 E30.14251
G1 X80.041 Y95.48 E30.15773
G1 X80.113 Y93.842 E30.35405
G1 X80.179 Y92.928 E30.46377
G1 X80.371 Y91.095 E30.68445
G1 X80.483 Y90.272 E30.7839
G1 X80.762 Y88.583 E30.98888
G1 X80.798 Y88.378 E31.0138
G1 X80.936 Y87.68 E31.09899
G1 X80.967 Y87.536 E31.11663
G1 X81.365 Y85.8 E31.32988
G1 X81.56 Y85.049 E31.42279
G1 X81.591 Y84.937 E31.4367
G1 X82.068 Y83.3 E31.64086
G1 X82.345 Y82.449 E31.74802
G1 X82.95 Y80.759 E31.96295
G1 X83.28 Y79.923 E32.07057
G1 X83.995 Y78.254 E32.28797
G1 X84.342 Y77.506 E32.3867
G1 X85.145 Y75.9 E32.6017
G1 X85.549 Y75.148 E32.70391
G1 X85.594 Y75.066 E32.71511
G1 X86.429 Y73.623 E32.91473
G1 X86.456 Y73.575 E32.92133
G1 X86.915 Y72.833 E33.0258
G1 X87.922 Y71.308 E33.24461
G1 X88.407 Y70.619 E33.3455
G1 X89.477 Y69.191 E33.55916
G0 F7200 X89.6 Y69.036
G1 F1350 X89.6 Y124.255 E40.17089
G0 F7200 X91.2 Y126.173
G1 F1350 X91.2 Y67.119 E47.2418
G0 F7200 X92.8 Y65.406
G1 F1350 X92.8 Y127.899 E54.7245
G0 F7200 X94.4 Y129.451
G1 F1350 X94.4 Y63.861 E62.57801
G0 F7200 X96 Y62.454
G1 F1350 X96 Y130.858 E70.76847
G0 F7200 X97.6 Y132.127
G1 F1350 X97.6 Y61.167 E79.26497
G0 F7200 X99.2 Y60.003
G1 F1350 X99.2 Y133.293 E88.04046
G0 F7200 X100.8 Y134.359
G1 F1350 X100.8 Y58.953 E97.06931
G0 F7200 X102.4 Y57.982
G1 F1350 X102.4 Y135.324 E106.32996
G0 F7200 X104 Y136.193
G1 F1350 X104 Y57.103 E115.79992
G0 F7200 X105.6 Y56.314
G1 F1350 X105.6 Y136.995 E125.46038
G0 F7200 X107.2 Y137.711
G1 F1350 X107.2 Y55.596 E135.29254
G0 F7200 X108.8 Y54.948
G1 F1350 X108.8 Y138.347 E145.27845
G0 F7200 X110.4 Y138.928
G1 F1350 X110.4 Y54.382 E155.40169
G0 F7200 X112 Y53.87
G1 F1350 X112 Y139.429 E165.64622
G0 F7200 X113.6 Y139.868
G1 F1350 X113.6 Y53.429 E175.99612
G0 F7200 X115.2 Y53.059
G1 F1350 X115.2 Y140.25 E186.43607
G0 F7200 X116.8 Y140.558
G1 F1350 X116.8 Y52.737 E196.95145
G0 F7200 X118.4 Y52.487
G1 F1350 X118.4 Y140.823 E207.52849
G0 F7200 X120 Y141.016
G1 F1350 X120 Y52.287 E218.15259
G0 F7200 X121.6 Y52.147
G1 F1350 X121.6 Y141.151 E228.80961
G0 F7200 X123.2 Y141.235
G1 F1350 X123.2 Y52.075 E239.48532
G0 F7200 X124.8 Y52.045
G1 F1350 X124.8 Y141.253 E250.16677
G0 F7200 X126.4 Y141.226
G1 F1350 X126.4 Y52.086 E260.84008
G0 F7200 X128 Y52.175
G1 F1350 X128 Y141.132 E271.49148
G0 F7200 X129.6 Y140.977
G1 F1350 X129.6 Y52.321 E282.10684
G0 F7200 X131.2 Y52.538
G1 F1350 X131.2 Y140.773 E292.67179
G0 F7200 X132.8 Y140.499
G1 F1350 X132.8 Y52.799 E303.17268
G0 F7200 X134.4 Y53.131
G1 F1350 X134.4 Y140.178 E313.59538
G0 F7200 X136 Y139.788
G1 F1350 X136 Y53.521 E323.92469
G0 F7200 X137.6 Y53.971
G1 F1350 X137.6 Y139.327 E334.14491
G0 F7200 X139.2 Y138.814
G1 F1350 X139.2 Y54.497 E344.24074
G0 F7200 X140.8 Y55.077
G1 F1350 X140.8 Y138.222 E354.19623
G0 F7200 X142.4 Y137.563
G1 F1350 X142.4 Y55.734 E363.99414
G0 F7200 X144 Y56.477
G1 F1350 X144 Y136.837 E373.61617
G0 F7200 X145.6 Y136.021
G1 F1350 X145.6 Y57.279 E383.04446
G0 F7200 X147.2 Y58.172
G1 F1350 X147.2 Y135.125 E392.25854
G0 F7200 X148.8 Y134.145
G1 F1350 X148.8 Y59.167 E401.23614
G0 F7200 X150.4 Y60.243
G1 F1350 X150.4 Y133.065 E409.95559
G0 F7200 X152 Y131.87
G1 F1350 X152 Y61.426 E418.39031
G0 F7200 X153.6 Y62.73
G1 F1350 X153.6 Y130.57 E426.51323
G0 F7200 X155.2 Y129.142
G1 F1350 X155.2 Y64.172 E434.29251
G0 F7200 X156.8 Y65.757
G1 F1350 X156.8 Y127.558 E441.69235
G0 F7200 X158.4 Y125.804
G1 F1350 X158.4 Y67.512 E448.67202
G0 F7200 X160 Y69.473
G1 F1350 X160 Y123.838 E455.1815
G0 F7200 X161.6 Y121.621
G1 F1350 X161.6 Y71.693 E461.1597
G0 F7200 X163.2 Y74.249
G1 F1350 X163.2 Y119.068 E466.52617
G0 F7200 X164.8 Y116.053
G1 F1350 X164.8 Y77.256 E471.17159
G0 F7200 X166.4 Y80.994
G1 F1350 X166.4 Y112.312 E474.9215
G0 F7200 X168 Y107.097
G1 F1350 X168 Y86.223 E477.42087
G0 F7200 X88 Y71.197
G1 F1350 X88 Y122.095 E483.51522
G0 F7200 X86.4 Y119.625
G1 F1350 X86.4 Y73.673 E489.01735
G0 F7200 X84.8 Y76.59
G1 F1350 X84.8 Y116.731 E493.8237
G0 F7200 X83.2 Y113.163
G1 F1350 X83.2 Y80.125 E497.77955
G0 F7200 X81.6 Y84.906
G1 F1350 X81.6 Y108.386 E500.59096
G0 F600 X81.6 Y108.386 Z0.81
G0 F7200 X87.67 Y121.627
;TIME_ELAPSED:192.476284
;LAYER:-5
;TYPE:SUPPORT
G1 F1350 X88.634 Y122.995 E500.84144
G1 X89.204 Y123.759 E500.98411
G1 X90.3 Y125.132 E501.24705
G1 X90.842 Y125.773 E501.37269
G1 X90.921 Y125.864 E501.39072
G1 X92.104 Y127.178 E501.65535
G1 X92.694 Y127.795 E501.78312
G1 X93.915 Y128.998 E502.03967
G1 X94.014 Y129.094 E502.06031
G1 X94.627 Y129.662 E502.18539
G1 X95.96 Y130.824 E502.45006
G1 X96.643 Y131.386 E502.58245
G1 X97.985 Y132.425 E502.83647
G1 X98.103 Y132.514 E502.85859
G1 X98.647 Y132.91 E502.9593
G1 X98.821 Y133.033 E502.99119
G1 X99.677 Y133.618 E503.14637
G1 X87.64 Y121.581 E505.6942
G1 X87.156 Y120.85 E505.82541
G1 X86.218 Y119.331 E506.09262
G1 X85.762 Y118.537 E506.22966
G1 X85.472 Y117.999 E506.32113
G1 X103.302 Y135.829 E510.09514
G1 X103.328 Y135.843 E510.09956
G1 X104.909 Y136.663 E510.36613
G1 X105.734 Y137.059 E510.50309
G1 X106.115 Y137.228 E510.56547
G1 X84.059 Y115.172 E515.23398
G1 X83.759 Y114.523 E515.341
G1 X83.424 Y113.735 E515.46915
G1 X83.029 Y112.728 E515.63105
G1 X108.557 Y138.255 E521.03436
G1 X109.848 Y138.739 E521.24072
G1 X110.604 Y138.998 E521.36032
G1 X110.761 Y139.046 E521.3849
G1 X82.245 Y110.529 E527.42088
G1 X81.952 Y109.627 E527.56282
G1 X81.916 Y109.511 E527.581
G1 X81.683 Y108.709 E527.706
G1 X81.629 Y108.499 E527.73845
G1 X112.787 Y139.657 E534.33355
G1 X113.171 Y139.763 E534.39317
G1 X114.674 Y140.13 E534.62474
G1 X81.151 Y106.607 E541.72042
G1 X81.039 Y106.111 E541.79653
G1 X80.786 Y104.828 E541.99225
G1 X116.452 Y140.494 E549.54154
G1 X117.509 Y140.687 E549.70236
G1 X118.158 Y140.785 E549.8006
G1 X80.502 Y103.13 E557.77099
G1 X80.31 Y101.697 E557.98739
G1 X80.289 Y101.503 E558.01659
G1 X119.775 Y140.988 E566.37434
G1 X120.218 Y141.042 E566.44113
G1 X121.067 Y141.118 E566.56871
G1 X121.335 Y141.134 E566.60889
G1 X80.154 Y99.953 E575.32552
G1 X80.087 Y99.042 E575.46224
G1 X80.062 Y98.447 E575.55137
G1 X122.839 Y141.224 E584.60582
G1 X122.896 Y141.226 E584.61435
G1 X123.809 Y141.252 E584.75106
G1 X124.281 Y141.252 E584.8217
G1 X80.033 Y97.003 E594.18761
G1 X80.026 Y96.491 E594.26425
G1 X80.026 Y96.351 E594.28521
G1 X80.037 Y95.606 E594.39672
G1 X80.037 Y95.593 E594.39867
G1 X125.69 Y141.246 E604.06187
G1 X126.475 Y141.221 E604.17942
G1 X127.045 Y141.187 E604.26488
G1 X80.095 Y94.237 E614.20261
G1 X80.113 Y93.84 E614.26209
G1 X80.179 Y92.927 E614.3991
G1 X80.18 Y92.908 E614.40194
G1 X128.373 Y141.101 E624.60277
G1 X129.048 Y141.042 E624.70419
G1 X129.655 Y140.968 E624.79571
G1 X80.314 Y91.628 E635.23942
G1 X80.37 Y91.094 E635.31979
G1 X80.469 Y90.368 E635.42945
G1 X130.914 Y140.813 E646.10695
G1 X131.702 Y140.695 E646.22621
G1 X132.132 Y140.617 E646.29162
G1 X80.667 Y89.152 E657.18502
G1 X80.761 Y88.582 E657.27148
G1 X80.798 Y88.377 E657.30266
G1 X80.881 Y87.952 E657.36747
G1 X133.329 Y140.401 E668.46905
G1 X133.436 Y140.381 E668.48534
G1 X134.302 Y140.2 E668.61776
G1 X134.495 Y140.152 E668.64752
G1 X81.136 Y86.793 E679.94182
G1 X81.364 Y85.799 E680.09446
G1 X81.404 Y85.646 E680.11813
G1 X135.632 Y139.875 E691.59647
G1 X136.028 Y139.78 E691.65742
G1 X136.753 Y139.581 E691.76994
G1 X81.707 Y84.536 E703.42121
G1 X82.025 Y83.44 E703.59202
G1 X137.837 Y139.251 E715.40543
G1 X138.616 Y139.012 E715.52738
G1 X138.911 Y138.911 E715.57405
G1 X82.371 Y82.371 E727.54166
G1 X82.744 Y81.33 E727.70717
G1 X139.952 Y138.538 E739.81617
G1 X140.981 Y138.153 E739.98061
G1 X83.129 Y80.301 E752.22592
G1 X83.278 Y79.922 E752.28687
G1 X83.544 Y79.302 E752.38785
G1 X141.987 Y137.745 E764.75825
G1 X142.966 Y137.309 E764.91866
G1 X83.968 Y78.312 E777.40643
G1 X83.994 Y78.254 E777.41595
G1 X84.34 Y77.505 E777.53943
G1 X84.419 Y77.348 E777.56574
G1 X143.937 Y136.866 E790.16369
G1 X144.364 Y136.661 E790.23458
G1 X144.878 Y136.393 E790.32134
G1 X84.89 Y76.405 E803.01877
G1 X85.144 Y75.9 E803.10338
G1 X85.373 Y75.473 E803.1759
G1 X145.809 Y135.91 E815.96826
G1 X145.994 Y135.814 E815.99946
G1 X146.711 Y135.414 E816.12234
G1 X146.721 Y135.408 E816.12409
G1 X85.88 Y74.567 E829.00207
G1 X86.399 Y73.671 E829.15705
G1 X147.607 Y134.879 E842.11271
G1 X148.222 Y134.512 E842.2199
G1 X148.325 Y134.449 E842.23797
G1 X148.487 Y134.345 E842.26679
G1 X86.938 Y72.795 E855.29474
G1 X87.5 Y71.943 E855.4475
G1 X149.342 Y133.786 E868.53747
G1 X150.182 Y133.211 E868.68982
G1 X88.068 Y71.098 E881.83715
G1 X88.406 Y70.618 E881.92502
G1 X88.661 Y70.277 E881.98875
