;FLAVOR:Marlin
;TIME:6968
;Filament used: 12.2907m
;Layer height: 0.3
;MINX:78.761
;MINY:72.092
;MINZ:0.36
;MAXX:172.346
;MAXY:165.659
;MAXZ:53.46
;Generated with Cura_SteamEngine 4.12.0
M140 S60
M105
M190 S60
M104 S200
M105
M109 S200
M82 ;absolute extrusion mode
G21 ;metric values
G90 ;absolute positioning
M82 ;set extruder to absolute mode
M107 ;start with the fan off
G28 X0 Y0 ;move X/Y to min endstops
M300 S1318 P266
G28 Z0 ;move Z to min endstops
G0 Z0.2
G92 E0 ;zero the extruded length
G1 X40 E25 F400 ; Extrude 25mm of filament in a 4cm line. Reduce speed (F) if you have a nozzle smaller than 0.4mm!
G92 E0 ;zero the extruded length again
G1 E-1 F500 ; Retract a little
G1 X80 F4000 ; Quickly wipe away from the filament line
M117 ; Printing…
G5
G92 E0
G92 E0
G1 F1500 E-6.5
;LAYER_COUNT:173
;LAYER:-6
M107
G0 F7200 X91.82 Y86.733 Z0.36
;TYPE:SUPPORT-INTERFACE
G1 F1500 E0
G1 F1350 X92.444 Y86.092 E0.10711
G1 X93.887 Y84.695 E0.3476
G1 X94.543 Y84.101 E0.45356
G1 X94.65 Y84.007 E0.47061
G1 X96.15 Y82.731 E0.70641
G1 X96.925 Y82.115 E0.82495
G1 X98.561 Y80.897 E1.06917
G1 X99.341 Y80.356 E1.18283
G1 X101.029 Y79.258 E1.42394
G1 X101.816 Y78.781 E1.53413
G1 X103.593 Y77.781 E1.77828
G1 X104.47 Y77.324 E1.89669
G1 X106.293 Y76.448 E2.13886
G1 X107.088 Y76.098 E2.24287
G1 X107.197 Y76.052 E2.25703
G1 X109.069 Y75.295 E2.49881
G1 X109.915 Y74.984 E2.60674
G1 X111.917 Y74.321 E2.85925
G1 X112.816 Y74.057 E2.97144
G1 X114.762 Y73.548 E3.21229
G1 X115.709 Y73.334 E3.32854
G1 X117.685 Y72.95 E3.56956
G1 X118.632 Y72.799 E3.68439
G1 X120.568 Y72.55 E3.91811
G1 X120.668 Y72.538 E3.93017
G1 X121.595 Y72.449 E4.04167
G1 X123.633 Y72.321 E4.28617
G1 X124.516 Y72.293 E4.39196
G1 X126.551 Y72.293 E4.63562
G1 X127.571 Y72.326 E4.75781
G1 X129.608 Y72.458 E5.00223
G1 X130.537 Y72.549 E5.114
G1 X132.562 Y72.811 E5.35848
G1 X133.519 Y72.967 E5.47458
G1 X135.448 Y73.345 E5.70995
G1 X136.354 Y73.551 E5.8212
G1 X138.325 Y74.066 E6.06512
G1 X138.402 Y74.087 E6.07468
G1 X139.286 Y74.35 E6.18511
G1 X141.158 Y74.973 E6.42134
G1 X141.316 Y75.028 E6.44138
G1 X142.041 Y75.296 E6.53393
G1 X142.18 Y75.35 E6.55178
G1 X144.052 Y76.111 E6.79374
G1 X144.917 Y76.496 E6.90711
G1 X146.716 Y77.365 E7.14633
G1 X147.544 Y77.796 E7.2581
G1 X149.333 Y78.806 E7.50409
G1 X150.137 Y79.293 E7.61664
G1 X151.833 Y80.399 E7.85908
G1 X152.603 Y80.937 E7.97155
G1 X154.252 Y82.168 E8.21794
G1 X155.015 Y82.778 E8.33491
G1 X156.534 Y84.072 E8.57384
G1 X157.214 Y84.69 E8.68386
G1 X158.646 Y86.077 E8.92256
G1 X158.759 Y86.19 E8.9417
G1 X159.383 Y86.835 E9.04916
G1 X160.766 Y88.362 E9.29584
G1 X161.365 Y89.067 E9.40661
G1 X162.572 Y90.58 E9.63835
G1 X162.639 Y90.667 E9.6515
G1 X163.147 Y91.348 E9.75323
G1 X163.215 Y91.442 E9.76712
G1 X164.373 Y93.104 E10.00966
G1 X164.868 Y93.866 E10.11846
G1 X165.923 Y95.609 E10.36242
G1 X166.386 Y96.432 E10.47548
G1 X167.348 Y98.278 E10.72473
G1 X167.725 Y99.061 E10.82878
G1 X168.554 Y100.933 E11.07393
G1 X168.926 Y101.85 E11.19241
G1 X169.607 Y103.7 E11.42846
G1 X169.902 Y104.586 E11.54027
G1 X169.946 Y104.728 E11.55807
G1 X170.489 Y106.559 E11.78675
G1 X170.528 Y106.699 E11.80415
G1 X170.732 Y107.479 E11.90068
G1 X170.758 Y107.586 E11.91387
G1 X171.18 Y109.432 E12.1406
G1 X171.211 Y109.582 E12.15894
G1 X171.383 Y110.463 E12.26642
G1 X171.705 Y112.463 E12.50898
G1 X171.819 Y113.356 E12.61677
G1 X172.02 Y115.43 E12.86627
G1 X172.082 Y116.426 E12.98576
G1 X172.146 Y118.443 E13.22739
G1 X172.145 Y119.388 E13.34054
G1 X172.079 Y121.41 E13.58277
G1 X172.022 Y122.311 E13.69087
G1 X171.822 Y124.375 E13.93917
G1 X171.694 Y125.355 E14.0575
G1 X171.377 Y127.318 E14.29559
G1 X171.194 Y128.262 E14.41073
G1 X170.739 Y130.249 E14.6548
G1 X170.501 Y131.158 E14.76731
G1 X169.938 Y133.054 E15.00413
G1 X169.627 Y133.993 E15.12257
G1 X169.614 Y134.035 E15.12783
G1 X168.934 Y135.876 E15.36282
G1 X168.896 Y135.976 E15.37563
G1 X168.56 Y136.805 E15.48274
G1 X167.727 Y138.686 E15.72906
G1 X167.34 Y139.49 E15.8359
G1 X166.407 Y141.278 E16.07738
G1 X166.346 Y141.392 E16.09286
G1 X165.926 Y142.136 E16.19516
G1 X164.879 Y143.863 E16.43698
G1 X164.831 Y143.941 E16.44795
G1 X164.321 Y144.723 E16.55973
G1 X163.175 Y146.366 E16.79959
G1 X162.574 Y147.167 E16.91949
G1 X161.331 Y148.725 E17.15814
G1 X160.683 Y149.484 E17.27763
G1 X159.313 Y150.989 E17.52132
G1 X158.729 Y151.591 E17.62174
G1 X158.621 Y151.699 E17.64003
G1 X157.182 Y153.089 E17.87959
G1 X156.547 Y153.666 E17.98232
G1 X154.95 Y155.026 E18.23348
G1 X154.27 Y155.568 E18.3376
G1 X154.183 Y155.635 E18.35075
G1 X152.546 Y156.854 E18.59514
G1 X151.785 Y157.383 E18.70611
G1 X150.071 Y158.497 E18.95087
G1 X149.267 Y158.983 E19.06336
G1 X147.486 Y159.984 E19.30799
G1 X146.646 Y160.422 E19.42142
G1 X144.79 Y161.313 E19.66793
G1 X144.028 Y161.649 E19.76765
G1 X143.904 Y161.701 E19.78375
G1 X142.133 Y162.418 E20.01252
G1 X141.223 Y162.755 E20.12871
G1 X139.255 Y163.41 E20.37706
G1 X138.366 Y163.673 E20.48807
G1 X138.29 Y163.695 E20.49754
G1 X136.416 Y164.184 E20.72944
G1 X136.314 Y164.209 E20.74202
G1 X135.493 Y164.396 E20.84284
G1 X135.378 Y164.42 E20.8569
G1 X133.4 Y164.803 E21.09814
G1 X132.496 Y164.948 E21.20777
G1 X130.464 Y165.209 E21.45307
G1 X129.606 Y165.292 E21.55628
G1 X129.483 Y165.302 E21.57106
G1 X127.54 Y165.426 E21.80418
G1 X126.6 Y165.457 E21.91679
G1 X126.512 Y165.459 E21.92733
G1 X124.558 Y165.458 E22.1613
G1 X123.611 Y165.428 E22.27475
G1 X121.558 Y165.298 E22.52106
G1 X120.622 Y165.208 E22.63365
G1 X118.619 Y164.949 E22.87548
G1 X117.673 Y164.797 E22.9902
G1 X115.683 Y164.411 E23.23292
G1 X114.76 Y164.202 E23.34623
G1 X112.79 Y163.687 E23.59004
G1 X111.891 Y163.421 E23.7023
G1 X111.76 Y163.38 E23.71873
G1 X109.936 Y162.774 E23.94887
G1 X109.059 Y162.451 E24.06077
G1 X108.937 Y162.404 E24.07643
G1 X107.07 Y161.645 E24.31774
G1 X106.203 Y161.26 E24.43133
G1 X104.463 Y160.421 E24.66263
G1 X103.574 Y159.959 E24.78259
G1 X101.786 Y158.952 E25.0283
G1 X100.956 Y158.449 E25.1445
G1 X99.26 Y157.342 E25.387
G1 X98.504 Y156.814 E25.49742
G1 X96.836 Y155.568 E25.74671
G1 X96.111 Y154.988 E25.85788
G1 X94.588 Y153.69 E26.09748
G1 X93.892 Y153.059 E26.20997
G1 X93.811 Y152.983 E26.22327
G1 X92.457 Y151.669 E26.44918
G1 X92.344 Y151.556 E26.46832
G1 X91.792 Y150.986 E26.56333
G1 X90.367 Y149.42 E26.81684
G1 X89.776 Y148.725 E26.92608
G1 X88.507 Y147.135 E27.16966
G1 X87.926 Y146.358 E27.28583
G1 X86.767 Y144.694 E27.52864
G1 X86.225 Y143.859 E27.64784
G1 X85.159 Y142.095 E27.89462
G1 X84.717 Y141.31 E28.00249
G1 X83.764 Y139.482 E28.24933
G1 X83.339 Y138.594 E28.3672
G1 X82.519 Y136.736 E28.61038
G1 X82.162 Y135.848 E28.72497
G1 X81.491 Y134.023 E28.9578
G1 X81.188 Y133.113 E29.07264
G1 X80.608 Y131.158 E29.31681
G1 X80.36 Y130.214 E29.43367
G1 X79.909 Y128.234 E29.67682
G1 X79.718 Y127.242 E29.79778
G1 X79.402 Y125.279 E30.03585
G1 X79.286 Y124.376 E30.14486
G1 X79.09 Y122.349 E30.3887
G1 X79.029 Y121.41 E30.50137
G1 X78.964 Y119.388 E30.7436
G1 X78.962 Y119.285 E30.75594
G1 X78.962 Y118.413 E30.86035
G1 X79.026 Y116.407 E31.10066
G1 X79.029 Y116.323 E31.11073
G1 X79.088 Y115.404 E31.22099
G1 X79.285 Y113.375 E31.46508
G1 X79.406 Y112.438 E31.5782
G1 X79.727 Y110.45 E31.81932
G1 X79.9 Y109.56 E31.92788
G1 X79.931 Y109.416 E31.94552
G1 X80.352 Y107.571 E32.17211
G1 X80.619 Y106.548 E32.2987
G1 X81.169 Y104.698 E32.5298
G1 X81.491 Y103.723 E32.65274
G1 X82.192 Y101.822 E32.89535
G1 X82.55 Y100.94 E33.00932
G1 X83.347 Y99.141 E33.24492
G1 X83.406 Y99.014 E33.26169
G1 X83.775 Y98.246 E33.36371
G1 X84.736 Y96.403 E33.61258
G1 X85.183 Y95.611 E33.72147
G1 X86.221 Y93.899 E33.9612
G1 X86.282 Y93.801 E33.97502
G1 X86.726 Y93.12 E34.07236
G1 X86.815 Y92.988 E34.09142
G1 X87.919 Y91.404 E34.3226
G1 X88.464 Y90.673 E34.43178
G1 X88.533 Y90.584 E34.44527
G1 X89.776 Y89.026 E34.68391
G1 X90.438 Y88.251 E34.80595
G1 X91.713 Y86.849 E35.03286
G1 X91.82 Y86.733 E35.05176
G0 F7200 X91.2 Y87.413
G1 F1350 X91.2 Y150.335 E42.58581
G0 F7200 X92.8 Y152.001
G1 F1350 X92.8 Y85.747 E50.51884
G0 F7200 X94.4 Y84.23
G1 F1350 X94.4 Y153.519 E58.81526
G0 F7200 X96 Y154.893
G1 F1350 X96 Y82.858 E67.44047
G0 F7200 X97.6 Y81.612
G1 F1350 X97.6 Y156.138 E76.36396
G0 F7200 X99.2 Y157.3
G1 F1350 X99.2 Y80.453 E85.56535
G0 F7200 X100.8 Y79.406
G1 F1350 X100.8 Y158.347 E95.01746
G0 F7200 X102.4 Y159.297
G1 F1350 X102.4 Y78.452 E104.69756
G0 F7200 X104 Y77.568
G1 F1350 X104 Y160.18 E114.58923
G0 F7200 X105.6 Y160.969
G1 F1350 X105.6 Y76.781 E124.66961
G0 F7200 X107.2 Y76.05
G1 F1350 X107.2 Y161.697 E134.92468
G0 F7200 X108.8 Y162.348
G1 F1350 X108.8 Y75.403 E145.33517
G0 F7200 X110.4 Y74.823
G1 F1350 X110.4 Y162.928 E155.88455
G0 F7200 X112 Y163.453
G1 F1350 X112 Y74.296 E166.55989
G0 F7200 X113.6 Y73.851
G1 F1350 X113.6 Y163.898 E177.34181
G0 F7200 X115.2 Y164.301
G1 F1350 X115.2 Y73.449 E188.22011
G0 F7200 X116.8 Y73.121
G1 F1350 X116.8 Y164.627 E199.17671
G0 F7200 X118.4 Y164.913
G1 F1350 X118.4 Y72.835 E210.20181
G0 F7200 X120 Y72.623
G1 F1350 X120 Y165.127 E221.27791
G0 F7200 X121.6 Y165.3
G1 F1350 X121.6 Y72.448 E232.39568
G0 F7200 X123.2 Y72.348
G1 F1350 X123.2 Y165.401 E243.53752
G0 F7200 X124.8 Y165.458
G1 F1350 X124.8 Y72.293 E254.69277
G0 F7200 X126.4 Y72.293
G1 F1350 X126.4 Y165.458 E265.84802
G0 F7200 X128 Y165.397
G1 F1350 X128 Y72.354 E276.98867
G0 F7200 X129.6 Y72.458
G1 F1350 X129.6 Y165.293 E288.1044
G0 F7200 X131.2 Y165.115
G1 F1350 X131.2 Y72.635 E299.17763
G0 F7200 X132.8 Y72.85
G1 F1350 X132.8 Y164.9 E310.19938
G0 F7200 X134.4 Y164.61
G1 F1350 X134.4 Y73.14 E321.15167
G0 F7200 X136 Y73.471
G1 F1350 X136 Y164.281 E332.02494
G0 F7200 X137.6 Y163.876
G1 F1350 X137.6 Y73.877 E342.80111
G0 F7200 X139.2 Y74.325
G1 F1350 X139.2 Y163.427 E353.46987
G0 F7200 X140.8 Y162.896
G1 F1350 X140.8 Y74.854 E364.01171
G0 F7200 X142.4 Y75.44
G1 F1350 X142.4 Y162.31 E374.41321
G0 F7200 X144 Y161.661
G1 F1350 X144 Y76.09 E384.65919
G0 F7200 X145.6 Y76.826
G1 F1350 X145.6 Y160.925 E394.7289
G0 F7200 X147.2 Y160.134
G1 F1350 X147.2 Y77.617 E404.6092
G0 F7200 X148.8 Y78.506
G1 F1350 X148.8 Y159.246 E414.27672
G0 F7200 X150.4 Y158.284
G1 F1350 X150.4 Y79.465 E423.71423
G0 F7200 X152 Y80.516
G1 F1350 X152 Y157.234 E432.90018
G0 F7200 X153.6 Y156.07
G1 F1350 X153.6 Y81.682 E441.80714
G0 F7200 X155.2 Y82.936
G1 F1350 X155.2 Y154.814 E450.41355
G0 F7200 X156.8 Y153.437
G1 F1350 X156.8 Y84.314 E458.6901
G0 F7200 X158.4 Y85.839
G1 F1350 X158.4 Y151.913 E466.60157
G0 F7200 X160 Y150.235
G1 F1350 X160 Y87.517 E474.1112
G0 F7200 X161.6 Y89.362
G1 F1350 X161.6 Y148.388 E481.17877
G0 F7200 X163.2 Y146.331
G1 F1350 X163.2 Y91.422 E487.75338
G0 F7200 X164.8 Y93.762
G1 F1350 X164.8 Y143.989 E493.76738
G0 F7200 X166.4 Y141.292
G1 F1350 X166.4 Y96.459 E499.13553
G0 F7200 X168 Y99.682
G1 F1350 X168 Y138.07 E503.73197
G0 F7200 X169.6 Y134.073
G1 F1350 X169.6 Y103.681 E507.371
G0 F7200 X171.2 Y109.529
G1 F1350 X171.2 Y128.232 E509.61044
G0 F7200 X89.6 Y148.504
G1 F1350 X89.6 Y89.246 E516.70578
G0 F7200 X88 Y91.295
G1 F1350 X88 Y146.456 E523.31056
G0 F7200 X86.4 Y144.128
G1 F1350 X86.4 Y93.62 E529.35821
G0 F7200 X84.8 Y96.289
G1 F1350 X84.8 Y141.457 E534.76647
G0 F7200 X83.2 Y138.279
G1 F1350 X83.2 Y99.472 E539.41309
G0 F7200 X81.6 Y103.427
G1 F1350 X81.6 Y134.319 E543.11199
G0 F7200 X80 Y128.633
G1 F1350 X80 Y109.113 E545.44924
G0 F600 X80 Y109.113 Z0.81
G0 F7200 X82.55 Y100.939
;TIME_ELAPSED:209.388924
;LAYER:-5
;TYPE:SUPPORT
G1 F1350 X82.191 Y101.821 E545.59177
G1 X82.146 Y101.944 E545.61137
G1 X142.478 Y162.277 E558.38172
G1 X142.133 Y162.417 E558.43745
G1 X141.454 Y162.667 E558.54574
G1 X81.764 Y102.978 E571.17999
G1 X81.491 Y103.722 E571.29861
G1 X81.392 Y104.019 E571.34546
G1 X140.4 Y163.027 E583.83546
G1 X139.339 Y163.381 E584.00287
G1 X81.05 Y105.092 E596.34068
G1 X80.726 Y106.182 E596.51088
G1 X138.248 Y163.704 E608.68634
G1 X137.127 Y163.997 E608.85976
G1 X80.423 Y107.293 E620.86208
G1 X80.352 Y107.57 E620.90488
G1 X80.153 Y108.437 E621.03802
G1 X135.995 Y164.279 E632.85788
G1 X135.492 Y164.395 E632.93514
G1 X135.378 Y164.419 E632.95258
G1 X134.826 Y164.525 E633.0367
G1 X79.893 Y109.591 E644.66427
G1 X79.726 Y110.449 E644.7951
G1 X79.672 Y110.785 E644.84603
G1 X133.642 Y164.755 E656.26966
G1 X133.399 Y164.802 E656.3067
G1 X132.495 Y164.947 E656.44373
G1 X132.429 Y164.955 E656.45368
G1 X79.475 Y112.002 E667.66215
G1 X79.405 Y112.437 E667.72809
G1 X79.302 Y113.243 E667.84971
G1 X131.175 Y165.116 E678.82947
G1 X130.464 Y165.208 E678.93677
G1 X129.906 Y165.262 E679.02068
G1 X79.172 Y114.527 E689.75946
G1 X79.087 Y115.403 E689.89119
G1 X79.06 Y115.829 E689.95507
G1 X128.588 Y165.358 E700.43858
G1 X127.54 Y165.425 E700.59576
G1 X127.25 Y165.434 E700.63918
G1 X79 Y117.184 E710.85208
G1 X78.961 Y118.412 E711.03597
G1 X78.961 Y118.559 E711.05797
G1 X125.859 Y165.457 E720.98469
G1 X124.558 Y165.457 E721.17941
G1 X124.44 Y165.453 E721.19708
G1 X78.983 Y119.995 E730.8189
G1 X79.029 Y121.408 E731.03049
G1 X79.031 Y121.458 E731.03798
G1 X122.959 Y165.385 E740.33595
G1 X121.558 Y165.296 E740.54606
G1 X121.444 Y165.285 E740.5632
G1 X79.152 Y122.992 E749.5151
G1 X79.285 Y124.375 E749.72305
G1 X79.309 Y124.564 E749.75156
G1 X119.853 Y165.108 E758.33336
G1 X118.618 Y164.948 E758.51974
G1 X118.214 Y164.883 E758.58099
G1 X79.553 Y126.222 E766.76422
G1 X79.717 Y127.241 E766.91869
G1 X79.851 Y127.934 E767.02434
G1 X116.481 Y164.564 E774.77767
G1 X115.683 Y164.41 E774.89931
G1 X114.759 Y164.2 E775.04113
G1 X114.682 Y164.18 E775.05304
G1 X80.254 Y129.751 E782.34039
G1 X80.359 Y130.213 E782.4113
G1 X80.608 Y131.157 E782.55742
G1 X80.76 Y131.671 E782.63765
G1 X112.767 Y163.678 E789.41245
G1 X111.89 Y163.42 E789.54927
G1 X111.76 Y163.379 E789.56967
G1 X110.701 Y163.027 E789.7367
G1 X81.388 Y133.714 E795.94127
G1 X81.491 Y134.022 E795.98988
G1 X82.162 Y135.847 E796.2809
G1 X82.199 Y135.939 E796.29575
G1 X108.475 Y162.215 E801.85749
G1 X107.07 Y161.644 E802.08448
G1 X106.202 Y161.259 E802.2266
G1 X106.013 Y161.168 E802.25799
G1 X83.258 Y138.413 E807.07446
G1 X83.338 Y138.593 E807.10394
G1 X83.763 Y139.481 E807.25128
G1 X84.69 Y141.258 E807.55126
G1 X103.152 Y159.72 E811.45904
G1 X101.785 Y158.951 E811.6938
G1 X100.956 Y158.448 E811.83893
G1 X99.544 Y157.527 E812.09124
G1 X86.896 Y144.879 E814.7684
G0 F7200 X87.925 Y146.356
G1 F1350 X88.507 Y147.134 E814.91382
G1 X89.775 Y148.724 E815.2182
G1 X90.367 Y149.419 E815.35485
G1 X91.791 Y150.984 E815.67153
G1 X92.343 Y151.555 E815.7904
G1 X92.457 Y151.668 E815.81442
G1 X93.811 Y152.981 E816.09671
G1 X93.891 Y153.058 E816.11333
G1 X94.588 Y153.689 E816.25405
G1 X96.11 Y154.987 E816.55344
G1 X96.836 Y155.567 E816.69252
G1 X98.504 Y156.813 E817.00414
G1 X99.26 Y157.341 E817.14215
G1 X99.544 Y157.527 E817.19296
G0 F7200 X82.551 Y100.935
G1 F1350 X143.484 Y161.869 E830.09053
G1 X143.904 Y161.7 E830.15829
G1 X144.028 Y161.648 E830.17841
G1 X144.478 Y161.449 E830.25205
G1 X82.985 Y99.955 E843.26815
G1 X83.346 Y99.14 E843.40156
G1 X83.406 Y99.013 E843.42259
G1 X83.422 Y98.978 E843.42834
G1 X145.441 Y160.998 E856.55578
G1 X146.397 Y160.54 E856.71443
G1 X83.886 Y98.029 E869.9459
G1 X84.371 Y97.099 E870.10289
G1 X147.334 Y160.062 E883.43002
G1 X147.486 Y159.983 E883.45566
G1 X148.243 Y159.557 E883.58567
G1 X84.862 Y96.176 E897.00129
G1 X85.183 Y95.61 E897.09868
G1 X85.381 Y95.281 E897.15615
G1 X149.148 Y159.048 E910.65347
G1 X149.266 Y158.982 E910.6737
G1 X150.033 Y158.518 E910.80787
G1 X85.915 Y94.4 E924.37949
G1 X86.221 Y93.898 E924.46748
G1 X86.281 Y93.799 E924.48481
G1 X86.457 Y93.529 E924.53304
G1 X150.891 Y157.962 E938.17144
G1 X151.748 Y157.405 E938.32442
G1 X87.026 Y92.683 E952.02388
G1 X87.606 Y91.849 E952.17592
G1 X152.582 Y156.824 E965.92904
G1 X153.393 Y156.221 E966.0803
G1 X88.198 Y91.027 E979.87977
G1 X88.464 Y90.671 E979.94628
G1 X88.532 Y90.583 E979.96293
G1 X88.814 Y90.228 E980.03078
G1 X154.203 Y155.617 E993.87143
G1 X154.27 Y155.567 E993.88394
G1 X154.95 Y155.025 E994.01409
G1 X154.99 Y154.99 E994.02204
G1 X89.442 Y89.442 E1007.89634
G1 X89.775 Y89.026 E1007.97609
G1 X90.081 Y88.666 E1008.04681
G1 X155.754 Y154.34 E1021.94767
G1 X156.518 Y153.689 E1022.0979
G1 X90.743 Y87.914 E1036.02025
